source/img/svg/boat__small.svg

<svg width="42" height="15" viewBox="0 0 42 15" fill="none" xmlns="http://www.w3.org/2000/svg">
<path d="M39.555 12.056L1.57287 8.06841C1.28101 8.03777 1.0843 8.33255 1.23548 8.56735C3.66312 12.3403 9.41009 15 16.1 15H38.7584C38.9124 15 39.0475 14.9068 39.093 14.7698L39.8504 12.476C39.9148 12.281 39.7727 12.0788 39.555 12.056Z" fill="#011C40"/>
<path d="M41.8896 5.51766C41.7782 5.35594 41.597 5.24833 41.3933 5.22287L30.8932 3.91844C30.5145 3.87213 30.1582 4.1219 30.1065 4.47868C30.0547 4.83545 30.3248 5.16418 30.7078 5.21172L31.8964 5.35915C32.07 5.3807 32.2002 5.51896 32.2002 5.68199V6.69033C32.2002 6.884 32.0195 7.03534 31.8131 7.01447L29.0131 6.73466C28.8353 6.71769 28.7002 6.57744 28.7002 6.41113V3.55647C28.7002 3.49189 28.7205 3.42929 28.759 3.37579L29.9826 1.66575C30.1226 1.47009 30.1387 1.21962 30.0253 1.01028C29.9112 0.800253 29.6852 0.663291 29.4332 0.652208L14.7331 3.06688e-05C14.4972 -0.00195651 14.2683 0.0926639 14.1304 0.272657C14.1304 0.272657 11.3332 3.93541 10.72 4.74152C10.6465 4.83805 10.5233 4.88956 10.3973 4.87649L0.774214 3.91653C0.575451 3.89697 0.379396 3.95635 0.231739 4.07956C0.0847386 4.20353 0 4.37962 0 4.56481C0 5.19291 0.0875277 5.80856 0.252739 6.40601C0.289161 6.53778 0.412372 6.63362 0.55724 6.64929L40.1052 10.8012C40.2725 10.8188 40.4293 10.7229 40.479 10.5729L41.9694 6.06093C42.0295 5.87773 42.0001 5.67878 41.8896 5.51766ZM20.2007 1.90513L19.6547 5.46745C19.6281 5.64026 19.4635 5.76354 19.2767 5.74596C17.911 5.61748 12.7799 5.11465 12.7799 5.11465C12.5139 5.0879 12.3768 4.80419 12.5321 4.60073L14.9366 1.46428C15.0059 1.37424 15.1193 1.32273 15.2383 1.328L19.871 1.53345C20.0768 1.54254 20.23 1.71466 20.2007 1.90513ZM27.7894 2.3806L27.3589 2.98065C27.3204 3.03415 27.3001 3.09736 27.3001 3.16194V6.20187C27.3001 6.39554 27.1195 6.54687 26.913 6.52601L21.3577 5.97166C21.161 5.95209 21.0203 5.78379 21.0483 5.6012L21.6146 1.9078C21.6398 1.74149 21.7973 1.62019 21.9779 1.62799L27.5149 1.87386C27.7866 1.88556 27.9406 2.16927 27.7894 2.3806ZM36.4001 7.1097C36.4001 7.30337 36.2195 7.45471 36.013 7.43384C36.013 7.43384 34.5598 7.28121 33.9088 7.20952C33.7324 7.19064 33.6001 7.051 33.6001 6.88599V5.94292C33.6001 5.74596 33.7863 5.59333 33.9963 5.61939L36.0963 5.88025C36.2699 5.90241 36.4001 6.04068 36.4001 6.20378V7.1097ZM40.2662 6.78228L40.0065 7.56752C39.9576 7.71625 39.8014 7.81209 39.6348 7.79581L38.1123 7.64387C37.9352 7.62629 37.8001 7.48604 37.8001 7.31973V6.46532C37.8001 6.26836 37.9863 6.11573 38.1963 6.14179L39.9778 6.3629C40.192 6.38966 40.3299 6.58929 40.2662 6.78228Z" fill="#011C40"/>
</svg>

<svg width="42" height="15" viewBox="0 0 42 15" fill="none" xmlns="http://www.w3.org/2000/svg"><path d="M39.555 12.056L1.573 8.068c-.292-.03-.489.265-.338.5C3.663 12.34 9.41 15 16.1 15h22.658c.154 0 .29-.093.335-.23l.757-2.294c.065-.195-.077-.397-.295-.42zm2.335-6.538a.707.707 0 00-.497-.295l-10.5-1.305c-.378-.046-.735.204-.787.56-.051.357.219.686.602.734l1.188.147c.174.022.304.16.304.323V6.69c0 .194-.18.345-.387.324l-2.8-.28a.335.335 0 01-.313-.323V3.556c0-.064.02-.127.059-.18l1.224-1.71a.614.614 0 00.042-.656.706.706 0 00-.592-.358L14.733 0a.746.746 0 00-.603.273s-2.797 3.662-3.41 4.469a.359.359 0 01-.323.134l-9.623-.96a.735.735 0 00-.542.164.636.636 0 00-.232.485c0 .628.088 1.244.253 1.841a.35.35 0 00.304.243l39.548 4.152a.351.351 0 00.374-.228l1.49-4.512a.617.617 0 00-.08-.543zM20.2 1.905l-.545 3.562a.342.342 0 01-.378.279c-1.366-.129-6.497-.631-6.497-.631-.266-.027-.403-.31-.248-.514l2.405-3.137a.36.36 0 01.301-.136l4.633.205c.206.01.359.182.33.372zm7.59.476l-.431.6a.31.31 0 00-.059.18v3.04c0 .195-.18.346-.387.325l-5.555-.554c-.197-.02-.338-.188-.31-.37l.567-3.694c.025-.167.182-.288.363-.28l5.537.246c.272.012.426.295.274.507zM36.4 7.11c0 .193-.18.345-.387.324 0 0-1.453-.153-2.104-.224a.334.334 0 01-.309-.324v-.943c0-.197.186-.35.396-.324l2.1.261c.174.022.304.16.304.324v.906zm3.866-.328l-.26.786a.351.351 0 01-.371.228l-1.523-.152a.336.336 0 01-.312-.324v-.855c0-.197.186-.35.396-.323l1.782.22c.214.028.352.227.288.42z" fill="#011C40"/></svg>
